public/images/logo.svg

<svg width="82" height="34" viewBox="0 0 82 34" fill="none" xmlns="http://www.w3.org/2000/svg">
<path d="M25.688 21.688V21.832C25.832 24.748 26.48 29.068 22.772 29.536C20.648 29.788 18.02 28.888 15.608 28.708C13.448 28.456 11.072 28.636 8.912 27.916C3.404 26.26 0.812 19.852 2.504 14.56C4.844 5.488 17.912 0.375999 24.032 8.584C27.128 12.508 25.544 17.26 25.688 21.688ZM15.68 17.62C16.76 16.756 16.508 14.74 14.96 14.632C13.736 14.452 12.512 15.748 12.836 17.008C13.088 18.268 14.78 18.484 15.644 17.656L15.68 17.62ZM44.3624 28.024L44.2904 27.952C43.1744 26.944 42.0584 24.784 40.4024 25.9C37.7024 27.916 34.0304 32.488 31.0064 27.844C29.6744 25.792 28.9184 22.156 28.1984 18.664C27.3704 14.632 26.5784 10.564 27.3704 7.936C27.8024 6.208 29.4584 4.516 31.2584 4.804C33.1664 5.02 34.5344 7.144 35.9384 8.224C36.7304 8.944 37.6304 8.728 38.3864 8.116C43.0664 4.12 44.1464 2.932 48.7184 8.008C50.8064 10.204 52.7504 6.496 54.7304 5.488C56.6024 4.156 59.1224 4.66 59.7704 6.892C60.7784 10.636 57.3584 16.144 55.1984 21.112C53.3264 25.288 49.3304 33.532 44.3624 28.024ZM69.1361 25.504C67.0481 25.936 66.0401 28.564 63.8801 29.284C58.7321 30.832 58.8401 23.56 59.4161 19.888C60.2441 14.38 60.6761 1.456 67.9841 5.02C69.4961 5.956 71.0081 7.612 72.8441 6.64C74.6801 5.812 76.9121 4.192 78.8921 4.3C80.8361 4.372 81.8441 6.064 81.5201 8.044C81.0521 11.032 79.1081 13.948 79.1801 17.116C79.0361 20.536 81.0881 24.064 79.8641 27.304C79.2521 28.744 77.8481 29.716 76.2641 29.5C74.5001 29.32 72.7001 27.7 71.4401 26.656C70.5401 25.936 69.8561 25.468 69.1721 25.468L69.1361 25.504Z" fill="#CFD0D0"/>
</svg>

<?xml version="1.0" encoding="UTF-8"?>
<svg id="Layer_1" xmlns="http://www.w3.org/2000/svg" version="1.1" viewBox="0 0 82 34">
  <!-- Generator: Adobe Illustrator 29.5.1, SVG Export Plug-In . SVG Version: 2.1.0 Build 141)  -->
  <defs>
    <style>
      .st0 {
        fill: #f2f2f2;
      }
    </style>
  </defs>
  <path class="st0" d="M25.69,21.69v.14c.14,2.92.79,7.24-2.92,7.7-2.12.25-4.75-.65-7.16-.83-2.16-.25-4.54-.07-6.7-.79C3.4,26.26.81,19.85,2.5,14.56,4.84,5.49,17.91.38,24.03,8.58c3.1,3.92,1.51,8.68,1.66,13.1ZM15.68,17.62c1.08-.86.83-2.88-.72-2.99-1.22-.18-2.45,1.12-2.12,2.38.25,1.26,1.94,1.48,2.81.65l.04-.04ZM44.36,28.02l-.07-.07c-1.12-1.01-2.23-3.17-3.89-2.05-2.7,2.02-6.37,6.59-9.4,1.94-1.33-2.05-2.09-5.69-2.81-9.18-.83-4.03-1.62-8.1-.83-10.73.43-1.73,2.09-3.42,3.89-3.13,1.91.22,3.28,2.34,4.68,3.42.79.72,1.69.5,2.45-.11,4.68-4,5.76-5.18,10.33-.11,2.09,2.2,4.03-1.51,6.01-2.52,1.87-1.33,4.39-.83,5.04,1.4,1.01,3.74-2.41,9.25-4.57,14.22-1.87,4.18-5.87,12.42-10.84,6.91ZM69.14,25.5c-2.09.43-3.1,3.06-5.26,3.78-5.15,1.55-5.04-5.72-4.46-9.4.83-5.51,1.26-18.43,8.57-14.87,1.51.94,3.02,2.59,4.86,1.62,1.84-.83,4.07-2.45,6.05-2.34,1.94.07,2.95,1.76,2.63,3.74-.47,2.99-2.41,5.9-2.34,9.07-.14,3.42,1.91,6.95.68,10.19-.61,1.44-2.02,2.41-3.6,2.2-1.76-.18-3.56-1.8-4.82-2.84-.9-.72-1.58-1.19-2.27-1.19l-.04.04Z"/>
</svg>
